2024/special/img/readme_dl_button_pc.svg

<svg width="411" height="56" viewBox="0 0 411 56" fill="none" xmlns="http://www.w3.org/2000/svg">
<rect width="411" height="56" rx="8" fill="#FF0084"/>
<path d="M22.064 38.5V25.3H24.848V38.5H22.064ZM23.456 22.828C22.424 22.828 21.752 22.18 21.752 21.172C21.752 20.188 22.424 19.54 23.456 19.54C24.464 19.54 25.184 20.188 25.184 21.172C25.184 22.18 24.464 22.828 23.456 22.828ZM33.5141 44.428C30.3461 44.428 28.0421 43.252 28.0421 40.972C28.0421 39.844 28.7381 38.812 29.9621 38.092V37.972C29.2661 37.54 28.7621 36.844 28.7621 35.764C28.7621 34.732 29.4821 33.844 30.2261 33.316V33.22C29.3381 32.548 28.4741 31.276 28.4741 29.716C28.4741 26.716 30.8741 24.964 33.5861 24.964C34.3541 24.964 35.0261 25.108 35.5301 25.3H40.1861V27.388H37.6901C38.1941 27.916 38.5541 28.78 38.5541 29.788C38.5541 32.692 36.3701 34.324 33.5861 34.324C33.0101 34.324 32.3381 34.204 31.7381 33.94C31.3301 34.3 31.0181 34.684 31.0181 35.332C31.0181 36.1 31.5701 36.604 33.2261 36.604H35.6741C38.7941 36.604 40.4261 37.564 40.4261 39.82C40.4261 42.364 37.7381 44.428 33.5141 44.428ZM33.5861 32.548C34.9541 32.548 36.0821 31.468 36.0821 29.716C36.0821 27.94 34.9781 26.932 33.5861 26.932C32.2181 26.932 31.1141 27.94 31.1141 29.716C31.1141 31.468 32.2421 32.548 33.5861 32.548ZM33.9221 42.604C36.2261 42.604 37.7381 41.476 37.7381 40.276C37.7381 39.172 36.8741 38.812 35.2661 38.812H33.2741C32.6501 38.812 32.0741 38.764 31.5221 38.62C30.7301 39.22 30.3941 39.892 30.3941 40.564C30.3941 41.836 31.7381 42.604 33.9221 42.604ZM42.8531 38.5V25.3H45.1091L45.3491 27.148H45.4211C46.6211 25.948 47.9891 24.964 49.7891 24.964C52.5971 24.964 53.8451 26.86 53.8451 30.196V38.5H51.0611V30.556C51.0611 28.252 50.3891 27.364 48.8531 27.364C47.6291 27.364 46.7891 27.988 45.6371 29.14V38.5H42.8531ZM57.8296 38.5V25.3H60.6136V38.5H57.8296ZM59.2216 22.828C58.1896 22.828 57.5176 22.18 57.5176 21.172C57.5176 20.188 58.1896 19.54 59.2216 19.54C60.2296 19.54 60.9496 20.188 60.9496 21.172C60.9496 22.18 60.2296 22.828 59.2216 22.828ZM69.1837 38.836C66.2317 38.836 65.1757 36.964 65.1757 34.204V27.508H63.2557V25.444L65.3197 25.3L65.6317 21.652H67.9357V25.3H71.3917V27.508H67.9357V34.228C67.9357 35.788 68.5117 36.628 69.8797 36.628C70.3357 36.628 70.8877 36.46 71.2957 36.292L71.7997 38.332C71.0557 38.572 70.1677 38.836 69.1837 38.836ZM74.2593 38.5V25.3H77.0433V38.5H74.2593ZM75.6513 22.828C74.6193 22.828 73.9473 22.18 73.9473 21.172C73.9473 20.188 74.6193 19.54 75.6513 19.54C76.6593 19.54 77.3793 20.188 77.3793 21.172C77.3793 22.18 76.6593 22.828 75.6513 22.828ZM86.4774 38.836C83.1894 38.836 80.2614 36.292 80.2614 31.924C80.2614 27.508 83.1894 24.964 86.4774 24.964C89.7414 24.964 92.6934 27.508 92.6934 31.924C92.6934 36.292 89.7414 38.836 86.4774 38.836ZM86.4774 36.556C88.5414 36.556 89.8614 34.708 89.8614 31.924C89.8614 29.116 88.5414 27.268 86.4774 27.268C84.3894 27.268 83.1174 29.116 83.1174 31.924C83.1174 34.708 84.3894 36.556 86.4774 36.556ZM95.939 38.5V25.3H98.195L98.435 27.148H98.507C99.707 25.948 101.075 24.964 102.875 24.964C105.683 24.964 106.931 26.86 106.931 30.196V38.5H104.147V30.556C104.147 28.252 103.475 27.364 101.939 27.364C100.715 27.364 99.875 27.988 98.723 29.14V38.5H95.939ZM109.164 42.028V40.324H122.004V42.028H109.164ZM127.152 38.836C125.136 38.836 124.392 37.54 124.392 35.404V19.396H127.176V35.548C127.176 36.292 127.488 36.556 127.824 36.556C127.944 36.556 128.04 36.556 128.28 36.508L128.64 38.596C128.28 38.716 127.848 38.836 127.152 38.836ZM136.845 38.836C133.557 38.836 130.629 36.292 130.629 31.924C130.629 27.508 133.557 24.964 136.845 24.964C140.109 24.964 143.061 27.508 143.061 31.924C143.061 36.292 140.109 38.836 136.845 38.836ZM136.845 36.556C138.909 36.556 140.229 34.708 140.229 31.924C140.229 29.116 138.909 27.268 136.845 27.268C134.757 27.268 133.485 29.116 133.485 31.924C133.485 34.708 134.757 36.556 136.845 36.556ZM150.842 44.428C147.674 44.428 145.37 43.252 145.37 40.972C145.37 39.844 146.066 38.812 147.29 38.092V37.972C146.594 37.54 146.09 36.844 146.09 35.764C146.09 34.732 146.81 33.844 147.554 33.316V33.22C146.666 32.548 145.802 31.276 145.802 29.716C145.802 26.716 148.202 24.964 150.914 24.964C151.682 24.964 152.354 25.108 152.858 25.3H157.514V27.388H155.018C155.522 27.916 155.882 28.78 155.882 29.788C155.882 32.692 153.698 34.324 150.914 34.324C150.338 34.324 149.666 34.204 149.066 33.94C148.658 34.3 148.346 34.684 148.346 35.332C148.346 36.1 148.898 36.604 150.554 36.604H153.002C156.122 36.604 157.754 37.564 157.754 39.82C157.754 42.364 155.066 44.428 150.842 44.428ZM150.914 32.548C152.282 32.548 153.41 31.468 153.41 29.716C153.41 27.94 152.306 26.932 150.914 26.932C149.546 26.932 148.442 27.94 148.442 29.716C148.442 31.468 149.57 32.548 150.914 32.548ZM151.25 42.604C153.554 42.604 155.066 41.476 155.066 40.276C155.066 39.172 154.202 38.812 152.594 38.812H150.602C149.978 38.812 149.402 38.764 148.85 38.62C148.058 39.22 147.722 39.892 147.722 40.564C147.722 41.836 149.066 42.604 151.25 42.604ZM164.993 38.836C161.705 38.836 158.777 36.292 158.777 31.924C158.777 27.508 161.705 24.964 164.993 24.964C168.257 24.964 171.209 27.508 171.209 31.924C171.209 36.292 168.257 38.836 164.993 38.836ZM164.993 36.556C167.057 36.556 168.377 34.708 168.377 31.924C168.377 29.116 167.057 27.268 164.993 27.268C162.905 27.268 161.633 29.116 161.633 31.924C161.633 34.708 162.905 36.556 164.993 36.556ZM172.703 42.028V40.324H185.543V42.028H172.703ZM192.467 44.428C189.299 44.428 186.995 43.252 186.995 40.972C186.995 39.844 187.691 38.812 188.915 38.092V37.972C188.219 37.54 187.715 36.844 187.715 35.764C187.715 34.732 188.435 33.844 189.179 33.316V33.22C188.291 32.548 187.427 31.276 187.427 29.716C187.427 26.716 189.827 24.964 192.539 24.964C193.307 24.964 193.979 25.108 194.483 25.3H199.139V27.388H196.643C197.147 27.916 197.507 28.78 197.507 29.788C197.507 32.692 195.323 34.324 192.539 34.324C191.963 34.324 191.291 34.204 190.691 33.94C190.283 34.3 189.971 34.684 189.971 35.332C189.971 36.1 190.523 36.604 192.179 36.604H194.627C197.747 36.604 199.379 37.564 199.379 39.82C199.379 42.364 196.691 44.428 192.467 44.428ZM192.539 32.548C193.907 32.548 195.035 31.468 195.035 29.716C195.035 27.94 193.931 26.932 192.539 26.932C191.171 26.932 190.067 27.94 190.067 29.716C190.067 31.468 191.195 32.548 192.539 32.548ZM192.875 42.604C195.179 42.604 196.691 41.476 196.691 40.276C196.691 39.172 195.827 38.812 194.219 38.812H192.227C191.603 38.812 191.027 38.764 190.475 38.62C189.683 39.22 189.347 39.892 189.347 40.564C189.347 41.836 190.691 42.604 192.875 42.604ZM205.694 38.836C202.886 38.836 201.638 36.964 201.638 33.604V25.3H204.398V33.268C204.398 35.548 205.07 36.436 206.63 36.436C207.854 36.436 208.694 35.86 209.798 34.468V25.3H212.558V38.5H210.278L210.062 36.508H209.99C208.79 37.9 207.518 38.836 205.694 38.836ZM216.689 38.5V25.3H219.473V38.5H216.689ZM218.081 22.828C217.049 22.828 216.377 22.18 216.377 21.172C216.377 20.188 217.049 19.54 218.081 19.54C219.089 19.54 219.809 20.188 219.809 21.172C219.809 22.18 219.089 22.828 218.081 22.828ZM228.163 38.836C224.851 38.836 222.739 36.292 222.739 31.924C222.739 27.628 225.451 24.964 228.379 24.964C229.891 24.964 230.875 25.54 231.931 26.452L231.811 24.268V19.396H234.595V38.5H232.315L232.099 37.036H232.027C231.019 38.044 229.651 38.836 228.163 38.836ZM228.835 36.532C229.915 36.532 230.875 36.028 231.811 34.924V28.492C230.851 27.604 229.915 27.268 228.931 27.268C227.083 27.268 225.595 29.044 225.595 31.876C225.595 34.876 226.771 36.532 228.835 36.532ZM244.24 38.836C240.64 38.836 237.808 36.268 237.808 31.924C237.808 27.628 240.76 24.964 243.832 24.964C247.312 24.964 249.208 27.484 249.208 31.228C249.208 31.78 249.16 32.308 249.088 32.644H240.52C240.736 35.164 242.32 36.652 244.6 36.652C245.776 36.652 246.76 36.292 247.744 35.668L248.704 37.444C247.48 38.26 245.968 38.836 244.24 38.836ZM240.472 30.724H246.808C246.808 28.444 245.8 27.148 243.88 27.148C242.224 27.148 240.76 28.42 240.472 30.724ZM255.074 38.836C253.058 38.836 252.314 37.54 252.314 35.404V19.396H255.098V35.548C255.098 36.292 255.41 36.556 255.746 36.556C255.866 36.556 255.962 36.556 256.202 36.508L256.562 38.596C256.202 38.716 255.77 38.836 255.074 38.836ZM259.462 38.5V25.3H262.246V38.5H259.462ZM260.854 22.828C259.822 22.828 259.15 22.18 259.15 21.172C259.15 20.188 259.822 19.54 260.854 19.54C261.862 19.54 262.582 20.188 262.582 21.172C262.582 22.18 261.862 22.828 260.854 22.828ZM266.377 38.5V25.3H268.633L268.873 27.148H268.945C270.145 25.948 271.513 24.964 273.313 24.964C276.121 24.964 277.369 26.86 277.369 30.196V38.5H274.585V30.556C274.585 28.252 273.913 27.364 272.377 27.364C271.153 27.364 270.312 27.988 269.161 29.14V38.5H266.377ZM286.873 38.836C283.273 38.836 280.441 36.268 280.441 31.924C280.441 27.628 283.393 24.964 286.465 24.964C289.945 24.964 291.841 27.484 291.841 31.228C291.841 31.78 291.793 32.308 291.721 32.644H283.153C283.369 35.164 284.953 36.652 287.233 36.652C288.409 36.652 289.393 36.292 290.377 35.668L291.337 37.444C290.113 38.26 288.601 38.836 286.873 38.836ZM283.105 30.724H289.441C289.441 28.444 288.433 27.148 286.513 27.148C284.857 27.148 283.393 28.42 283.105 30.724ZM296.459 38.836C295.403 38.836 294.611 38.02 294.611 36.892C294.611 35.74 295.403 34.948 296.459 34.948C297.491 34.948 298.307 35.74 298.307 36.892C298.307 38.02 297.491 38.836 296.459 38.836ZM302.095 43.852V25.3H304.351L304.591 26.764H304.663C305.815 25.78 307.231 24.964 308.719 24.964C312.055 24.964 313.951 27.628 313.951 31.708C313.951 36.22 311.239 38.836 308.263 38.836C307.087 38.836 305.887 38.308 304.783 37.348L304.879 39.58V43.852H302.095ZM307.735 36.532C309.631 36.532 311.095 34.828 311.095 31.732C311.095 28.972 310.183 27.268 307.975 27.268C306.967 27.268 305.983 27.82 304.879 28.876V35.332C305.911 36.22 306.919 36.532 307.735 36.532ZM321.772 38.836C318.46 38.836 316.348 36.292 316.348 31.924C316.348 27.628 319.06 24.964 321.988 24.964C323.5 24.964 324.484 25.54 325.54 26.452L325.42 24.268V19.396H328.204V38.5H325.924L325.708 37.036H325.636C324.628 38.044 323.26 38.836 321.772 38.836ZM322.444 36.532C323.524 36.532 324.484 36.028 325.42 34.924V28.492C324.46 27.604 323.524 27.268 322.54 27.268C320.692 27.268 319.204 29.044 319.204 31.876C319.204 34.876 320.38 36.532 322.444 36.532ZM332.786 38.5V23.644C332.786 20.956 334.034 19.06 336.962 19.06C337.874 19.06 338.714 19.252 339.314 19.492L338.762 21.604C338.282 21.364 337.778 21.268 337.298 21.268C336.146 21.268 335.546 22.036 335.546 23.644V38.5H332.786ZM330.986 27.508V25.444L332.93 25.3H338.234V27.508H330.986Z" fill="white"/>
<path d="M386 33V39.6667C386 40.5507 385.649 41.3986 385.024 42.0237C384.399 42.6488 383.551 43 382.667 43H359.333C358.449 43 357.601 42.6488 356.976 42.0237C356.351 41.3986 356 40.5507 356 39.6667V33" stroke="white" stroke-width="2" stroke-linecap="round" stroke-linejoin="round"/>
<path d="M362.666 24.6667L370.999 33.0001L379.333 24.6667" stroke="white" stroke-width="2" stroke-linecap="round" stroke-linejoin="round"/>
<path d="M371 33V13" stroke="white" stroke-width="2" stroke-linecap="round" stroke-linejoin="round"/>
</svg>

<svg xmlns="http://www.w3.org/2000/svg" width="411" height="56" fill="none" viewBox="0 0 411 56"><rect width="411" height="56" fill="#ff0084" rx="8"/><path fill="#fff" d="M22.06 38.5V25.3h2.79v13.2zm1.4-15.67c-1.04 0-1.7-.65-1.7-1.66 0-.98.66-1.63 1.7-1.63 1 0 1.72.65 1.72 1.63 0 1.01-.72 1.66-1.72 1.66m10.05 21.6c-3.16 0-5.47-1.18-5.47-3.46 0-1.13.7-2.16 1.92-2.88v-.12a2.5 2.5 0 0 1-1.2-2.2c0-1.04.72-1.93 1.47-2.45v-.1a4.5 4.5 0 0 1-1.76-3.5c0-3 2.4-4.76 5.12-4.76.76 0 1.44.15 1.94.34h4.66v2.09h-2.5c.5.53.86 1.39.86 2.4 0 2.9-2.18 4.53-4.96 4.53-.58 0-1.25-.12-1.85-.38-.41.36-.72.74-.72 1.4 0 .76.55 1.26 2.2 1.26h2.45c3.12 0 4.76.96 4.76 3.22 0 2.54-2.7 4.6-6.92 4.6m.08-11.88c1.36 0 2.5-1.08 2.5-2.83 0-1.78-1.11-2.79-2.5-2.79-1.37 0-2.48 1.01-2.48 2.79 0 1.75 1.13 2.83 2.48 2.83m.33 10.05c2.3 0 3.82-1.12 3.82-2.32 0-1.1-.87-1.47-2.47-1.47h-2q-.93.01-1.75-.19c-.79.6-1.13 1.27-1.13 1.94 0 1.28 1.35 2.04 3.53 2.04m8.93-4.1V25.3h2.26l.24 1.85h.07c1.2-1.2 2.57-2.19 4.37-2.19 2.8 0 4.06 1.9 4.06 5.24v8.3h-2.79v-7.94c0-2.3-.67-3.2-2.2-3.2-1.23 0-2.07.63-3.22 1.78v9.36zm14.98 0V25.3h2.78v13.2zm1.4-15.67c-1.04 0-1.71-.65-1.71-1.66 0-.98.67-1.63 1.7-1.63 1.01 0 1.73.65 1.73 1.63 0 1.01-.72 1.66-1.73 1.66m9.95 16c-2.95 0-4-1.87-4-4.63v-6.7h-1.92v-2.06l2.06-.14.31-3.65h2.3v3.65h3.46v2.2h-3.45v6.73c0 1.56.57 2.4 1.94 2.4.46 0 1-.17 1.42-.34l.5 2.04c-.74.24-1.63.5-2.62.5m5.08-.33V25.3h2.78v13.2zm1.4-15.67c-1.04 0-1.71-.65-1.71-1.66 0-.98.67-1.63 1.7-1.63 1 0 1.73.65 1.73 1.63 0 1.01-.72 1.66-1.73 1.66m10.82 16c-3.3 0-6.22-2.54-6.22-6.9 0-4.42 2.93-6.97 6.22-6.97 3.26 0 6.21 2.55 6.21 6.96 0 4.37-2.95 6.92-6.21 6.92m0-2.27c2.06 0 3.38-1.85 3.38-4.64 0-2.8-1.32-4.65-3.38-4.65-2.1 0-3.36 1.85-3.36 4.65 0 2.79 1.27 4.64 3.36 4.64m9.46 1.94V25.3h2.25l.25 1.85h.07c1.2-1.2 2.56-2.19 4.36-2.19 2.81 0 4.06 1.9 4.06 5.24v8.3h-2.78v-7.94c0-2.3-.68-3.2-2.21-3.2-1.22 0-2.06.63-3.22 1.78v9.36zm13.22 3.53v-1.7H122v1.7zm18-3.2c-2.02 0-2.77-1.29-2.77-3.43v-16h2.79v16.15c0 .74.3 1 .64 1 .12 0 .22 0 .46-.04l.36 2.09c-.36.12-.8.24-1.49.24m9.69 0c-3.3 0-6.22-2.54-6.22-6.9 0-4.42 2.93-6.97 6.22-6.97 3.26 0 6.21 2.55 6.21 6.96 0 4.37-2.95 6.92-6.22 6.92m0-2.27c2.06 0 3.38-1.85 3.38-4.64 0-2.8-1.32-4.65-3.38-4.65-2.1 0-3.36 1.85-3.36 4.65 0 2.79 1.27 4.64 3.35 4.64m14 7.87c-3.18 0-5.48-1.18-5.48-3.46 0-1.13.7-2.16 1.92-2.88v-.12a2.5 2.5 0 0 1-1.2-2.2c0-1.04.72-1.93 1.46-2.45v-.1a4.5 4.5 0 0 1-1.75-3.5c0-3 2.4-4.76 5.11-4.76.77 0 1.44.15 1.95.34h4.65v2.09h-2.5c.51.53.87 1.39.87 2.4 0 2.9-2.18 4.53-4.97 4.53-.57 0-1.24-.12-1.84-.38-.41.36-.72.74-.72 1.4 0 .76.55 1.26 2.2 1.26h2.5c3.12 0 4.75.96 4.75 3.22 0 2.54-2.68 4.6-6.9 4.6m.06-11.88c1.37 0 2.5-1.08 2.5-2.83 0-1.78-1.1-2.79-2.5-2.79-1.36 0-2.47 1.01-2.47 2.79 0 1.75 1.13 2.83 2.47 2.83m.34 10.05c2.3 0 3.82-1.12 3.82-2.32 0-1.1-.87-1.47-2.48-1.47h-1.99q-.93.01-1.75-.19c-.8.6-1.13 1.27-1.13 1.94 0 1.28 1.35 2.04 3.53 2.04m13.74-3.76c-3.28 0-6.21-2.55-6.21-6.92 0-4.41 2.93-6.96 6.21-6.96s6.22 2.55 6.22 6.96c0 4.37-2.95 6.92-6.22 6.92m0-2.28c2.07 0 3.39-1.85 3.39-4.64 0-2.8-1.32-4.65-3.39-4.65-2.09 0-3.36 1.85-3.36 4.65 0 2.79 1.28 4.64 3.36 4.64m7.71 5.47v-1.7h12.84v1.7zm19.77 2.4c-3.17 0-5.47-1.18-5.47-3.46 0-1.13.7-2.16 1.91-2.88v-.12a2.5 2.5 0 0 1-1.2-2.2c0-1.04.72-1.93 1.47-2.45v-.1a4.5 4.5 0 0 1-1.75-3.5c0-3 2.4-4.76 5.1-4.76.78 0 1.45.15 1.95.34h4.66v2.09h-2.5c.5.53.87 1.39.87 2.4 0 2.9-2.19 4.53-4.97 4.53-.58 0-1.25-.12-1.85-.38-.4.36-.72.74-.72 1.4 0 .76.55 1.26 2.2 1.26h2.46c3.12 0 4.75.96 4.75 3.22 0 2.54-2.69 4.6-6.91 4.6m.07-11.88c1.37 0 2.5-1.08 2.5-2.83 0-1.78-1.1-2.79-2.5-2.79-1.37 0-2.47 1.01-2.47 2.79 0 1.75 1.13 2.83 2.47 2.83m.34 10.05c2.3 0 3.81-1.12 3.81-2.32 0-1.1-.86-1.47-2.47-1.47h-2q-.93.01-1.75-.19c-.79.6-1.12 1.27-1.12 1.94 0 1.28 1.34 2.04 3.53 2.04m12.81-3.76c-2.8 0-4.05-1.88-4.05-5.24v-8.3h2.76v7.97c0 2.28.67 3.17 2.23 3.17 1.22 0 2.06-.58 3.17-1.97V25.3h2.76v13.2h-2.28l-.22-2H210c-1.2 1.4-2.47 2.34-4.3 2.34m11-.34V25.3h2.78v13.2zm1.4-15.67c-1.04 0-1.71-.65-1.71-1.66 0-.98.67-1.63 1.7-1.63 1 0 1.73.65 1.73 1.63 0 1.01-.72 1.66-1.73 1.66m10.07 16c-3.3 0-5.42-2.54-5.42-6.9 0-4.3 2.71-6.97 5.64-6.97 1.51 0 2.5.58 3.55 1.5l-.12-2.2V19.4h2.78v19.1h-2.28l-.21-1.46h-.07a5.7 5.7 0 0 1-3.87 1.8m.68-2.3c1.07 0 2.03-.5 2.97-1.6V28.5a4 4 0 0 0-2.88-1.22c-1.85 0-3.34 1.77-3.34 4.6 0 3 1.18 4.66 3.25 4.66m15.4 2.3c-3.6 0-6.43-2.56-6.43-6.9 0-4.3 2.95-6.97 6.02-6.97 3.48 0 5.38 2.52 5.38 6.27a7 7 0 0 1-.12 1.41h-8.57c.22 2.52 1.8 4.01 4.08 4.01 1.18 0 2.16-.36 3.14-.98l.96 1.77a8 8 0 0 1-4.46 1.4m-3.77-8.1h6.34c0-2.29-1.01-3.58-2.93-3.58-1.66 0-3.12 1.27-3.4 3.57m14.6 8.1c-2.01 0-2.76-1.29-2.76-3.43v-16h2.79v16.15c0 .74.31 1 .65 1 .12 0 .21 0 .45-.04l.36 2.09c-.36.12-.79.24-1.49.24m4.4-.33V25.3h2.78v13.2zm1.38-15.67c-1.03 0-1.7-.65-1.7-1.66 0-.98.67-1.63 1.7-1.63 1.01 0 1.73.65 1.73 1.63 0 1.01-.72 1.66-1.73 1.66m5.53 15.67V25.3h2.25l.24 1.85h.07c1.2-1.2 2.57-2.19 4.37-2.19 2.81 0 4.06 1.9 4.06 5.24v8.3h-2.79v-7.94c0-2.3-.67-3.2-2.2-3.2-1.23 0-2.07.63-3.22 1.78v9.36zm20.5.34c-3.6 0-6.44-2.57-6.44-6.92 0-4.3 2.95-6.96 6.02-6.96 3.49 0 5.38 2.52 5.38 6.27a7 7 0 0 1-.12 1.41h-8.57c.22 2.52 1.8 4.01 4.08 4.01 1.18 0 2.16-.36 3.15-.98l.96 1.77a8 8 0 0 1-4.47 1.4m-3.77-8.12h6.33c0-2.28-1-3.57-2.93-3.57-1.65 0-3.12 1.27-3.4 3.57m13.35 8.12c-1.06 0-1.85-.82-1.85-1.95 0-1.15.8-1.94 1.85-1.94 1.03 0 1.85.79 1.85 1.94 0 1.13-.82 1.95-1.85 1.95m5.64 5.01V25.3h2.25l.24 1.46h.07c1.15-.98 2.57-1.8 4.06-1.8 3.33 0 5.23 2.67 5.23 6.75 0 4.51-2.71 7.13-5.69 7.13a5.4 5.4 0 0 1-3.48-1.5l.1 2.24v4.27zm5.63-7.32c1.9 0 3.37-1.7 3.37-4.8 0-2.76-.92-4.46-3.12-4.46-1.01 0-2 .55-3.1 1.6v6.46a4.4 4.4 0 0 0 2.86 1.2m14.04 2.3c-3.31 0-5.42-2.54-5.42-6.9 0-4.3 2.71-6.97 5.64-6.97 1.51 0 2.5.58 3.55 1.5l-.12-2.2V19.4h2.78v19.1h-2.28l-.21-1.46h-.07a5.7 5.7 0 0 1-3.87 1.8m.67-2.3c1.08 0 2.04-.5 2.98-1.6V28.5a4 4 0 0 0-2.88-1.22c-1.85 0-3.34 1.77-3.34 4.6 0 3 1.18 4.66 3.24 4.66m10.35 1.97V23.64c0-2.68 1.24-4.58 4.17-4.58.91 0 1.75.2 2.35.43l-.55 2.11a3 3 0 0 0-1.46-.33q-1.74-.02-1.75 2.37V38.5zm-1.8-11v-2.06l1.94-.14h5.3v2.2z"/><path stroke="#fff" stroke-linecap="round" stroke-linejoin="round" stroke-width="2" d="M386 33v6.67a3.33 3.33 0 0 1-3.33 3.33h-23.34a3.33 3.33 0 0 1-3.33-3.33V33m6.67-8.33L371 33l8.33-8.33M371 33V13"/></svg>
